X: 16712
T: Happy To Meet, Sorry To Part
R: jig
M: 6/8
K: Dmajor
a|afe f2e|dBc d2e|fbb afe|fbb b2a|
afe f2e|dBc d2e|fbb afe|fdd dBc||
ded cBA|FAA ABc|ded cBA|FGA B2c|
ded cBA|FAA ABc|dcd ede|fdd d3||

